src/assets/green-check.svg

<svg width="25" height="25" viewBox="0 0 25 25" fill="none" xmlns="http://www.w3.org/2000/svg">
<path id="Subtract" fill-rule="evenodd" clip-rule="evenodd" d="M12.5 25C19.4036 25 25 19.4036 25 12.5C25 5.59644 19.4036 0 12.5 0C5.59644 0 0 5.59644 0 12.5C0 19.4036 5.59644 25 12.5 25ZM18.8236 8.97352C19.1772 8.54924 19.1199 7.91868 18.6956 7.56511C18.2713 7.21155 17.6408 7.26887 17.2872 7.69315L11.7448 14.344C11.3981 14.7601 11.2032 14.9904 11.0476 15.132L11.0416 15.1374L11.0352 15.1325C10.8674 15.0057 10.6524 14.7939 10.2695 14.411L7.65142 11.7929C7.26089 11.4024 6.62773 11.4024 6.2372 11.7929C5.84668 12.1834 5.84668 12.8166 6.2372 13.2071L8.85526 15.8252L8.89609 15.866C9.22258 16.1926 9.53667 16.5068 9.82891 16.7278C10.1563 16.9754 10.585 17.2081 11.1344 17.1832C11.6838 17.1583 12.0897 16.8876 12.3933 16.6115C12.6643 16.365 12.9487 16.0236 13.2443 15.6688L13.2812 15.6244L18.8236 8.97352Z" fill="#66EFC2"/>
</svg>

<svg width="25" height="25" fill="none" xmlns="http://www.w3.org/2000/svg"><path fill-rule="evenodd" clip-rule="evenodd" d="M12.5 25C19.404 25 25 19.404 25 12.5S19.404 0 12.5 0 0 5.596 0 12.5 5.596 25 12.5 25Zm6.324-16.026a1 1 0 1 0-1.537-1.28l-5.542 6.65c-.347.416-.542.646-.697.788l-.006.005-.007-.005c-.168-.126-.383-.338-.765-.721L7.65 11.793a1 1 0 0 0-1.414 1.414l2.618 2.618.041.041c.327.327.64.64.933.862.327.247.756.48 1.305.455.55-.025.956-.295 1.26-.572.27-.246.555-.587.85-.942l.037-.045 5.543-6.65Z" fill="#66EFC2"/></svg>
